src/img/icons/brand-02.svg

<svg width="64" height="65" viewBox="0 0 64 65" fill="none" xmlns="http://www.w3.org/2000/svg">
<path fill-rule="evenodd" clip-rule="evenodd" d="M63 32.2939C63 49.4148 49.1208 63.2939 32 63.2939C14.8792 63.2939 1 49.4148 1 32.2939C1 15.1731 14.8792 1.29394 32 1.29394C49.1208 1.29394 63 15.1731 63 32.2939ZM64 32.2939C64 49.9671 49.6731 64.2939 32 64.2939C14.3269 64.2939 2.17128e-06 49.9671 1.39876e-06 32.2939C6.26248e-07 14.6208 14.3269 0.293945 32 0.293944C49.6731 0.293943 64 14.6208 64 32.2939Z" fill="#1B1B1B"/>
<path fill-rule="evenodd" clip-rule="evenodd" d="M7.02331 49.2939C7.59165 37.1224 18.4843 27.2939 32 27.2939C45.5157 27.2939 56.4084 37.1224 56.9767 49.2939L7.02331 49.2939ZM6.02216 49.2939C6.59011 36.5029 18.0035 26.2939 32 26.2939C45.9965 26.2939 57.4099 36.5029 57.9778 49.2939C57.9926 49.6256 58 49.959 58 50.2939L6 50.2939C6 49.959 6.00744 49.6256 6.02216 49.2939Z" fill="#1B1B1B"/>
<path fill-rule="evenodd" clip-rule="evenodd" d="M7.02331 15.2939C7.59165 27.4655 18.4843 37.2939 32 37.2939C45.5157 37.2939 56.4084 27.4655 56.9767 15.2939L7.02331 15.2939ZM6.02216 15.2939C6.59011 28.085 18.0035 38.2939 32 38.2939C45.9965 38.2939 57.4099 28.085 57.9778 15.2939C57.9926 14.9623 58 14.6289 58 14.2939L6 14.2939C6 14.6289 6.00744 14.9623 6.02216 15.2939Z" fill="#1B1B1B"/>
<path fill-rule="evenodd" clip-rule="evenodd" d="M49 7.29395L15 7.29395L15 57.2939L49 57.2939L49 7.29395ZM14 6.29395L14 58.2939L50 58.2939L50 6.29395L14 6.29395Z" fill="#1B1B1B"/>
</svg>

<svg xmlns="http://www.w3.org/2000/svg" fill="none" viewBox="0 0 64 65"><path fill="#1B1B1B" fill-rule="evenodd" d="M63 32.294c0 17.12-13.88 31-31 31-17.12 0-31-13.88-31-31 0-17.12 13.88-31 31-31 17.12 0 31 13.88 31 31zm1 0c0 17.673-14.327 32-32 32-17.673 0-32-14.327-32-32 0-17.673 14.327-32 32-32 17.673 0 32 14.327 32 32z" clip-rule="evenodd"/><path fill="#1B1B1B" fill-rule="evenodd" d="M7.023 49.294c.569-12.172 11.461-22 24.977-22s24.408 9.828 24.977 22H7.023zm-1 0c.567-12.791 11.98-23 25.977-23 13.996 0 25.41 10.209 25.978 23 .015.332.022.665.022 1H6c0-.335.007-.668.022-1z" clip-rule="evenodd"/><path fill="#1B1B1B" fill-rule="evenodd" d="M7.023 15.294c.569 12.171 11.461 22 24.977 22s24.408-9.828 24.977-22H7.023zm-1 0c.567 12.791 11.98 23 25.977 23 13.996 0 25.41-10.209 25.978-23 .015-.332.022-.665.022-1H6c0 .335.007.668.022 1z" clip-rule="evenodd"/><path fill="#1B1B1B" fill-rule="evenodd" d="M49 7.294H15v50h34v-50zm-35-1v52h36v-52H14z" clip-rule="evenodd"/></svg>
